X:470
T:Horses' Brawl
T:Branle des Chevaux
C:Arbeau, Orchesography, 1689
S:Colin Hume's website,  colinhume.com  - chords can also be printed below the stave.
%%MIDI program 22     Harmonica
%%MIDI chordprog 58   Tuba
%%MIDI bassprog 118   Synth Drum
%%MIDI gchord b2z2bzbz
N:Note values halved - notes were much shorter in those days.
N:These are the notes Arbeau published - you'll find other version but they all derive from these.
N:The chords on the other hand are mine - you can disagree with them as much as you like!
N:For the dance "Horseplay" by Gary Roodman or the dance "Cornercopia" by Andrew King play AABB.
Q:1/2=102
M:2/2
R:Reel
L:1/4
K:G
P:A
|: "G"GA BB | "C (F)"cBAc | "G (Em)"BAGF | "C"E2 "D"D2 |\
"G"GA BB | "C (F)"cBAc | "G (Em)"BG "D"AA | "G"G2G2 :|
P:B
|: "G"dc/B/ "D"AA/B/ | "C"cB/A/ "G"GB | "Am"AGFG | "D"A2A2 |\
"G"dc/B/ "D"AA/B/ | "C"cB/A/ "G"GB | "Am"AG "D"GF | "G"G2G2 :|
P:C
%%MIDI program 66     Tenor Sax
|: "Gm"_BA/G/ BA/G/ | "D"FGA2 | "D"DEFG | "Cm"A_BAG |\
"Gm"_BA/G/ BA/G/ | "D"FGA2 | "D"DEFG | "D"G^F "Gm"G2 :|

